X:1
T:Scraping Up Sand In The Bottom Of The Sea
B:Singing Together and Rhythm and Melody Autumn Term 1957
S:American Folk Songs for Children (Doublday & Co, Inc., New York)
M:2/4
L:1/8
K:Eb
%%text Fairly fast
E/E/E EE/E/ | G/G/B/B/ B2 |
w:Scrap-ing up sand in the bot-tom of the sea,
G E z | F B, z | E/E/E EE/E/
w:Shi-loh, Shi-loh, Srap-ing up sand in the
G/G/B/B/ B2 | GE F3/F/ | E2 z2 |
w:bot-tom of the sea, Shi-loh, Li-za Jane.
%%text CHORUS
G2 B3/B/ | c e2 z | e e2 G | B2 z2 |
w:Oh, how I love her, O Li-za Jane,
G2 B3/B/ | c e2 z | GG F3/F/ | E2 z2 |
w:Oh, how I love her, Good-bye, Li-za Jane.